images_files/otherVG/x.svg

<svg width="25" height="25" viewBox="0 0 25 25" fill="none" xmlns="http://www.w3.org/2000/svg">
<path d="M14.8784 10.5858L24.1852 0H21.9798L13.8987 9.1915L7.44433 0H0L9.76025 13.8992L0 25H2.20554L10.7394 15.2935L17.5557 25H25L14.8779 10.5858H14.8784ZM11.8576 14.0216L10.8687 12.6376L3.00023 1.6246H6.38781L12.7378 10.5124L13.7267 11.8965L21.9808 23.4493H18.5933L11.8576 14.0222V14.0216Z" fill="#2E3E40"/>
</svg>

<svg xmlns="http://www.w3.org/2000/svg" width="25" height="25" fill="none" xmlns:v="https://vecta.io/nano"><path d="M14.878 10.586L24.185 0H21.98l-8.081 9.192L7.444 0H0l9.76 13.899L0 25h2.206l8.534-9.706L17.556 25H25L14.878 10.586h0zm-3.021 3.436l-.989-1.384L3 1.625h3.388l6.35 8.888.989 1.384 8.254 11.553h-3.387l-6.736-9.427h0z" fill="#2e3e40"/></svg>
